X: 28171
T: Mrs McRory
R: jig
M: 6/8
K: Gmajor
g|:dBG G2 A|BAB G2 B|dBA G (3B^cd|e2 A ABc|dBA G2 A|
BAB G (3B^cd|gfe dBA|1 BGG G2 g:|2 BGG G2 f||
|:gdg gdg|aea aea|~g3 aga|bge e2 f|
gdg gdg|aea aea|gfe dBA|1 BGG G2 f|2 BGG G2 g||

